lib/brands/logos/qualtrics-xm.svg

<svg xmlns="http://www.w3.org/2000/svg" fill="none" aria-hidden="true" viewBox="0 0 182 64"><g id="Qualtrics XM"><g id="Group"><g id="Vector"><path fill="black" d="M61.6933 38.4404C60.6333 38.4404 60.4214 37.6584 60.4214 36.3075V22.87C60.4214 18.2769 57.8304 15.5423 53.487 15.5423C48.3052 15.5423 45.9498 19.5276 45.9085 23.4777V23.6402H49.3828V23.4765C49.3325 22.1498 49.8102 20.8573 50.7112 19.8821C51.0529 19.5309 51.4624 19.2528 51.9149 19.0647C52.3674 18.8767 52.8534 18.7825 53.3434 18.7881C55.4185 18.7881 56.6574 20.4074 56.6574 23.1196V24.3798L52.5225 26.3418C47.8341 28.5347 44.7615 30.3178 44.7615 34.9449C44.7615 39.0068 47.3171 41.7356 51.121 41.7356C52.2553 41.6999 53.3671 41.411 54.3752 40.8899C55.3833 40.3688 56.2621 39.6289 56.9471 38.7242C57.1508 39.6095 57.6581 40.3954 58.381 40.9456C59.1039 41.4957 59.9967 41.7752 60.9042 41.7356C61.6393 41.7274 62.3659 41.5775 63.0441 41.2939L63.143 41.2527V37.9716L62.9075 38.1012C62.5447 38.3308 62.1225 38.4487 61.6933 38.4404ZM56.6586 27.7103V35.5468C56.1764 36.3953 55.4962 37.1146 54.6759 37.6435C53.8557 38.1723 52.9197 38.495 51.9478 38.584C51.476 38.6099 51.0043 38.5329 50.5652 38.3585C50.1261 38.1841 49.7301 37.9164 49.4047 37.5739C49.0792 37.2314 48.832 36.8223 48.6802 36.3749C48.5284 35.9275 48.4756 35.4525 48.5254 34.9826C48.5254 31.8853 51.2341 30.2353 53.5895 29.1436L56.6586 27.7103ZM81.0253 8.04623H77.365L77.2295 16.044H73.879V19.4593H77.2272V35.9801C77.2272 39.6887 78.9643 41.7309 82.1182 41.7309C83.4338 41.7095 84.7209 41.3441 85.8515 40.6709L85.9339 40.625V37.1814L85.6713 37.3957C84.9415 38.031 84.0165 38.3975 83.0497 38.4345C81.3762 38.4345 81.0253 37.0413 81.0253 35.8718V19.4652H86.418V16.0499H81.0253V8.04623ZM36.9933 35.3253C35.5612 37.4028 33.9136 38.5464 32.3532 38.5464C30.3052 38.5464 29.5762 36.5384 29.5762 34.6599V16.0428H25.8134V34.8378C25.8134 39.2212 27.7919 41.7356 31.2426 41.7356C32.3824 41.7282 33.5044 41.4514 34.5169 40.9278C35.5294 40.4043 36.4038 39.6488 37.0687 38.723L37.1323 41.2704H40.7549V16.0428H36.9921L36.9933 35.3253ZM17.5471 18.3346C16.5743 16.554 14.6712 15.4834 12.6443 15.5776C11.5627 15.5976 10.5014 15.8752 9.54841 16.3872C8.59543 16.8992 7.77821 17.631 7.16449 18.5219C5.42973 20.8455 4.54999 24.2608 4.54999 28.6737C4.54999 38.3308 8.45289 41.7709 12.1061 41.7709C14.0517 41.8239 15.9077 40.9501 17.1055 39.4155V59.4459H20.9083V16.0428H17.6496L17.5471 18.3346ZM17.1066 21.8206V35.6209C16.0597 37.5135 14.7901 38.3956 13.1107 38.3956C10.0016 38.3956 8.42581 35.1122 8.42581 28.6384C8.42581 22.4154 10.1994 18.8458 13.2897 18.8458C15.0728 18.9023 16.6155 20.1047 17.1066 21.8206ZM66.1956 4.25403H69.9572V41.2704H66.1956V4.25403ZM104.338 16.044H108.099V41.2704H104.338V16.044ZM104.373 8.01208H108.099V12.3802H104.373V8.01208ZM93.9305 18.9894L93.7409 16.0452H90.1678V41.3081H93.9305V23.1244C95.6358 19.6631 97.8405 19.1849 99.9556 19.1838L100.847 19.2556V15.58H99.8261C97.1468 15.5776 95.6712 16.415 93.9305 18.9894ZM138.878 26.2865L138.781 26.4184L138.856 26.2759C136.495 25.057 134.823 24.03 134.823 21.9043C134.797 21.0504 135.135 20.226 135.754 19.6384C136.06 19.3476 136.425 19.1249 136.823 18.9851C137.222 18.8452 137.645 18.7913 138.066 18.8269C138.538 18.8095 139.008 18.8935 139.444 19.0733C139.881 19.2531 140.273 19.5245 140.596 19.8692C140.993 20.3641 141.284 20.9358 141.45 21.5485C141.616 22.1611 141.654 22.8015 141.56 23.4294L141.543 23.606H145.027L145.036 23.4529C145.225 21.313 144.528 19.1885 143.108 17.5774C142.457 16.9159 141.676 16.3964 140.815 16.0518C139.954 15.7072 139.03 15.545 138.103 15.5753C134.041 15.5753 131.205 18.264 131.205 22.1139C131.205 26.3089 134.568 28.1084 137.023 29.4227C139.477 30.737 141.776 32.003 141.776 34.6199C141.793 35.1253 141.706 35.6288 141.52 36.099C141.334 36.5693 141.053 36.9962 140.695 37.3534C140.337 37.7105 139.909 37.9901 139.439 38.1749C138.968 38.3597 138.464 38.4456 137.959 38.4274C135.551 38.4274 133.818 36.4029 133.747 33.5046V33.3468H130.233V33.5117C130.351 38.6041 133.306 41.7674 137.955 41.7674C139.946 41.8969 141.896 41.1715 143.316 39.7712C144.737 38.3709 145.491 36.4312 145.39 34.4397C145.393 29.7348 141.931 27.8999 138.878 26.2865ZM124.195 33.3515C124.229 34.8554 123.734 36.3234 122.796 37.4994C122.509 37.8028 122.162 38.0425 121.776 38.203C121.391 38.3635 120.976 38.4411 120.558 38.4309C117.662 38.4309 116.133 35.0568 116.133 28.6749C116.133 22.3235 117.717 18.8246 120.594 18.8246C120.982 18.8158 121.368 18.8882 121.727 19.0373C122.086 19.1863 122.41 19.4087 122.678 19.6902C123.557 20.7786 124.027 22.1401 124.008 23.5389H127.569C127.674 21.2992 126.929 19.1026 125.481 17.3901C124.862 16.7691 124.121 16.2839 123.304 15.9658C122.487 15.6476 121.613 15.5034 120.737 15.5423C115.341 15.5423 112.376 20.193 112.376 28.6395C112.376 37.086 115.259 41.7368 120.492 41.7368C124.707 41.7368 127.344 38.6241 127.676 33.3515H124.195ZM150.724 39.2471C150.805 39.0983 150.845 38.9311 150.842 38.7619C150.856 38.5299 150.77 38.3014 150.606 38.1365C150.409 37.9719 150.156 37.8904 149.9 37.9092H148.558V40.6015H149.224V39.6404H149.732L150.186 40.6015H150.936L150.361 39.5568C150.515 39.4996 150.643 39.3899 150.724 39.2471ZM150.059 39.0339C149.944 39.0867 149.819 39.1106 149.694 39.1034H149.222V38.418H149.694C149.821 38.41 149.948 38.439 150.059 38.5016C150.102 38.5328 150.136 38.5747 150.158 38.6232C150.181 38.6718 150.19 38.7253 150.185 38.7784C150.196 38.8808 150.148 38.9809 150.059 39.0339Z"/><path fill="black" d="M151.868 38.2743C151.75 37.9917 151.577 37.7349 151.358 37.5206C151.139 37.3062 150.879 37.1425 150.596 37.0307C149.985 36.7968 149.31 36.7968 148.7 37.0307C148.415 37.1423 148.155 37.3088 147.935 37.5206C147.716 37.7349 147.544 37.9917 147.426 38.2743C147.181 38.9032 147.181 39.6016 147.426 40.2305C147.543 40.5167 147.716 40.7767 147.935 40.9948C148.154 41.2095 148.414 41.3778 148.7 41.4894C149.31 41.7233 149.985 41.7233 150.596 41.4894C150.881 41.3776 151.14 41.2091 151.358 40.9948C151.576 40.7805 151.751 40.5167 151.868 40.2305C152.114 39.6016 152.114 38.9032 151.868 38.2743ZM151.404 40.0409C151.311 40.2705 151.174 40.4798 151.001 40.6568C150.831 40.8311 150.626 40.9665 150.4 41.0549C149.924 41.2405 149.396 41.2405 148.92 41.0549C148.694 40.9664 148.489 40.8307 148.319 40.6568C148.146 40.4801 148.009 40.2705 147.916 40.0409C147.718 39.5355 147.718 38.974 147.916 38.4686C148.009 38.2388 148.146 38.0295 148.319 37.8527C148.489 37.6796 148.694 37.543 148.92 37.4546C149.396 37.269 149.924 37.269 150.4 37.4546C150.626 37.5441 150.831 37.6796 151.001 37.8527C151.17 38.0258 151.311 38.239 151.404 38.4686C151.602 38.974 151.602 39.5355 151.404 40.0409Z"/></g><path id="Vector_2" fill="url(#paint0_linear_93_16191)" d="M172.789 7.88069L169.535 19.3974H169.493L166.003 7.88069H158.282L155.638 12.5809L152.838 7.88069H148.913L153.478 15.2661L148.469 23.5394H152.083L155.296 18.0643L158.622 23.5394H164.546V12.6834H164.587C164.67 13.138 164.748 13.527 164.823 13.8505C164.897 14.1739 164.968 14.4735 165.035 14.749L165.256 15.5346L165.499 16.3507L167.823 23.5347H170.87L173.215 16.3507C173.387 15.7721 173.547 15.2142 173.695 14.6772C173.857 14.0784 173.986 13.4714 174.083 12.8588H174.124V23.5394H177.45V7.87598L172.789 7.88069ZM157.373 15.2861L161.458 8.50487V21.9307L157.373 15.2861Z"/></g></g><defs><linearGradient id="paint0_linear_93_16191" x1="152.324" x2="161.576" y1="8.00128" y2="30.9304" gradientUnits="userSpaceOnUse"><stop offset="0.042" stop-color="#21DBAA"/><stop offset="0.358" stop-color="#00B4EF"/><stop offset="0.433" stop-color="#01A7EC"/><stop offset="0.568" stop-color="#0487E4"/><stop offset="0.68" stop-color="#0768DD"/><stop offset="0.965" stop-color="#5F1AE5"/></linearGradient></defs></svg>

<svg xmlns="http://www.w3.org/2000/svg" fill="none" aria-hidden="true" viewBox="0 0 182 64"><path fill="#000" d="M61.693 38.44c-1.06 0-1.272-.782-1.272-2.133V22.87c0-4.593-2.59-7.328-6.934-7.328-5.182 0-7.537 3.986-7.578 7.936v.162h3.474v-.163a5.017 5.017 0 0 1 1.328-3.595 3.616 3.616 0 0 1 2.632-1.094c2.075 0 3.314 1.62 3.314 4.332v1.26l-4.134 1.962c-4.689 2.193-7.762 3.976-7.762 8.603 0 4.062 2.556 6.79 6.36 6.79a7.608 7.608 0 0 0 5.826-3.01 3.887 3.887 0 0 0 3.957 3.01 5.713 5.713 0 0 0 2.14-.441l.1-.041v-3.281l-.236.13a2.19 2.19 0 0 1-1.215.338ZM56.66 27.71v7.837a6.054 6.054 0 0 1-4.711 3.037 3.261 3.261 0 0 1-3.423-3.601c0-3.098 2.71-4.748 5.065-5.84l3.069-1.433ZM81.025 8.046h-3.66l-.135 7.998h-3.351v3.415h3.348V35.98c0 3.709 1.737 5.75 4.891 5.75a7.537 7.537 0 0 0 3.734-1.06l.082-.045v-3.444l-.263.215a4.239 4.239 0 0 1-2.621 1.038c-1.674 0-2.025-1.393-2.025-2.562V19.465h5.393V16.05h-5.393V8.046Zm-44.032 27.28c-1.432 2.077-3.08 3.22-4.64 3.22-2.048 0-2.777-2.008-2.777-3.886V16.043h-3.762v18.795c0 4.383 1.978 6.898 5.429 6.898a7.23 7.23 0 0 0 5.826-3.013l.063 2.547h3.623V16.043h-3.763l.001 19.282ZM17.547 18.334a5.307 5.307 0 0 0-4.903-2.757 6.808 6.808 0 0 0-5.48 2.944C5.43 20.846 4.55 24.26 4.55 28.674c0 9.657 3.903 13.097 7.556 13.097a6.13 6.13 0 0 0 5-2.355v20.03h3.802V16.043H17.65l-.103 2.292Zm-.44 3.486v13.8c-1.047 1.892-2.317 2.775-3.996 2.775-3.11 0-4.685-3.284-4.685-9.758 0-6.223 1.774-9.792 4.864-9.792a4.106 4.106 0 0 1 3.817 2.975ZM66.196 4.254h3.761V41.27h-3.761V4.254Zm38.142 11.79h3.762V41.27h-3.762V16.044Zm.035-8.032h3.727v4.368h-3.727V8.012ZM93.931 18.99l-.19-2.944h-3.573v25.263h3.763V23.124c1.705-3.46 3.91-3.94 6.025-3.94l.891.072V15.58h-1.02c-2.68-.002-4.156.835-5.896 3.41Zm44.947 7.297-.097.132.075-.142c-2.361-1.219-4.033-2.246-4.033-4.372a2.997 2.997 0 0 1 2-2.919c.399-.14.822-.194 1.243-.158a3.296 3.296 0 0 1 2.53 1.042 4.611 4.611 0 0 1 .964 3.56l-.017.177h3.485l.008-.153a7.843 7.843 0 0 0-1.928-5.876 6.713 6.713 0 0 0-5.005-2.002c-4.062 0-6.898 2.689-6.898 6.539 0 4.195 3.363 5.994 5.818 7.309 2.454 1.314 4.753 2.58 4.753 5.197a3.684 3.684 0 0 1-3.817 3.807c-2.408 0-4.141-2.024-4.211-4.922v-.158h-3.515v.165c.118 5.092 3.073 8.255 7.722 8.255a6.987 6.987 0 0 0 7.435-7.327c.003-4.705-3.459-6.54-6.512-8.153Zm-14.683 7.066a6.419 6.419 0 0 1-1.399 4.147 2.977 2.977 0 0 1-2.238.932c-2.896 0-4.425-3.374-4.425-9.756 0-6.352 1.584-9.85 4.461-9.85a2.79 2.79 0 0 1 2.084.865 5.995 5.995 0 0 1 1.33 3.849h3.561a8.873 8.873 0 0 0-2.088-6.149 6.293 6.293 0 0 0-4.744-1.848c-5.396 0-8.361 4.651-8.361 13.098 0 8.446 2.883 13.097 8.116 13.097 4.215 0 6.852-3.113 7.184-8.386h-3.481Zm26.529 5.895a.978.978 0 0 0 .118-.485.819.819 0 0 0-.236-.626.988.988 0 0 0-.706-.227h-1.342v2.693h.666v-.962h.508l.454.962h.75l-.575-1.045a.692.692 0 0 0 .363-.31Zm-.665-.213a.766.766 0 0 1-.365.07h-.471v-.686h.471a.66.66 0 0 1 .365.084.306.306 0 0 1 .126.276.263.263 0 0 1-.126.256Z"/><path fill="#000" d="M151.868 38.274a2.275 2.275 0 0 0-1.272-1.244 2.65 2.65 0 0 0-1.896 0 2.336 2.336 0 0 0-.765.49 2.266 2.266 0 0 0-.508.754 2.685 2.685 0 0 0 0 1.956c.116.287.289.547.508.765.219.215.479.383.765.494a2.65 2.65 0 0 0 1.896 0 2.27 2.27 0 0 0 1.272-1.258 2.685 2.685 0 0 0 0-1.957Zm-.464 1.767a1.9 1.9 0 0 1-.403.616c-.17.174-.375.31-.601.398a2.037 2.037 0 0 1-1.48 0 1.715 1.715 0 0 1-.601-.398 1.9 1.9 0 0 1-.403-.616 2.155 2.155 0 0 1 0-1.572 1.9 1.9 0 0 1 .403-.616c.17-.173.375-.31.601-.398a2.037 2.037 0 0 1 1.48 0c.226.09.431.225.601.398.169.173.31.386.403.616a2.155 2.155 0 0 1 0 1.572Z"/><path fill="url(#a)" d="m172.789 7.88-3.254 11.517h-.041l-3.491-11.516h-7.721l-2.644 4.7-2.799-4.7h-3.926l4.565 7.385-5.009 8.273h3.615l3.212-5.475 3.326 5.475h5.924V12.683h.041c.083.455.161.844.236 1.167.074.324.145.623.212.899l.221.785.243.817 2.325 7.184h3.046l2.345-7.184a95.19 95.19 0 0 0 .481-1.674c.161-.599.29-1.206.387-1.818h.041v10.68h3.326V7.876l-4.661.005Zm-15.416 7.406 4.085-6.781V21.93l-4.085-6.645Z"/><defs><linearGradient id="a" x1="152.324" x2="161.576" y1="8.001" y2="30.93" gradientUnits="userSpaceOnUse"><stop offset=".042" stop-color="#21DBAA"/><stop offset=".358" stop-color="#00B4EF"/><stop offset=".433" stop-color="#01A7EC"/><stop offset=".568" stop-color="#0487E4"/><stop offset=".68" stop-color="#0768DD"/><stop offset=".965" stop-color="#5F1AE5"/></linearGradient></defs></svg>
